src/assets/img/partners/pt9.svg

<?xml version="1.0" encoding="UTF-8"?> <svg xmlns="http://www.w3.org/2000/svg" width="220" height="47" viewBox="0 0 220 47" fill="none"> <path fill-rule="evenodd" clip-rule="evenodd" d="M0 3.61538C0 1.61866 1.64574 0 3.67586 0H29.4069C31.437 0 33.0827 1.61866 33.0827 3.61538V9.03846H12.8655C10.8354 9.03846 9.18964 10.6571 9.18964 12.6538V32.5385H3.67586C1.64574 32.5385 0 30.9199 0 28.9231V3.61538ZM14.7034 37.9615V43.3846C14.7034 45.3814 16.3492 47 18.3793 47H44.1103C46.1405 47 47.7861 45.3814 47.7861 43.3846V18.0769C47.7861 16.0802 46.1405 14.4615 44.1103 14.4615H38.5965V34.3462C38.5965 36.3429 36.9508 37.9615 34.9206 37.9615H14.7034Z" fill="url(#paint0_linear_211_8)"></path> <path d="M14.7034 18.0769C14.7034 16.0802 16.3492 14.4615 18.3793 14.4615H33.0827V28.9231C33.0827 30.9199 31.437 32.5385 29.4069 32.5385H14.7034V18.0769Z" fill="url(#paint1_linear_211_8)"></path> <path d="M58.2285 6.91406H66.733V8.71886H60.2399V12.0334H66.2037V13.8382H60.2399V17.257H66.8388V19.0618H58.2285V6.91406Z" fill="#808080"></path> <path d="M69.8585 21.3004H68.0765V17.5346H69.241C70.1702 15.9149 70.6172 13.6474 70.5819 10.7319H77.1985V17.5346H78.4512V21.3004H76.6692V19.0618H69.8585V21.3004ZM72.3464 12.2591C72.2758 14.3415 71.8994 16.1001 71.2171 17.5346H75.2929V12.2591H72.3464Z" fill="#808080"></path> <path d="M81.7961 19.0618H80.1728V10.7319H82.0607V16.181L86.5953 10.7319H88.2185V19.0618H86.3306V13.6127L81.7961 19.0618Z" fill="#808080"></path> <path d="M92.468 19.0618H90.5801V10.7319H92.468V14.0812H96.7026V10.7319H98.5905V19.0618H96.7026V15.7125H92.468V19.0618Z" fill="#808080"></path> <path d="M105.152 19.0618H100.953V10.7319H102.841V13.5085H105.152C106.187 13.5085 107.005 13.7689 107.605 14.2895C108.205 14.8101 108.505 15.4753 108.505 16.2852C108.505 17.095 108.205 17.7602 107.605 18.2809C107.005 18.8015 106.187 19.0618 105.152 19.0618ZM102.841 14.9663V17.5867H104.782C105.346 17.5867 105.787 17.4768 106.105 17.257C106.423 17.0256 106.581 16.7017 106.581 16.2852C106.581 15.8571 106.423 15.5332 106.105 15.3133C105.787 15.082 105.346 14.9663 104.782 14.9663H102.841ZM111.91 19.0618H110.022V10.7319H111.91V19.0618Z" fill="#808080"></path> <path d="M113.743 14.8968C113.743 14.1795 113.872 13.5316 114.131 12.9532C114.39 12.3631 114.731 11.9004 115.154 11.5649C115.578 11.2178 116.037 10.9575 116.531 10.7839C117.025 10.5988 117.525 10.5063 118.03 10.5063C118.677 10.5063 119.26 10.6046 119.777 10.8013C120.307 10.998 120.73 11.2641 121.048 11.5996C121.365 11.9351 121.624 12.3227 121.824 12.7623C122.024 13.2019 122.13 13.6647 122.142 14.1506C122.153 14.6249 122.112 15.1051 122.018 15.591H115.649C115.743 16.2967 116.095 16.8289 116.707 17.1875C117.319 17.5346 118.048 17.7081 118.895 17.7081C119.86 17.7081 120.754 17.5115 121.577 17.1181V18.7147C120.765 19.0964 119.754 19.2873 118.542 19.2873C117.166 19.2873 116.019 18.9056 115.102 18.142C114.196 17.3784 113.743 16.2967 113.743 14.8968ZM120.324 14.2027C120.395 13.7283 120.248 13.254 119.883 12.7796C119.53 12.2937 118.942 12.0508 118.119 12.0508C117.448 12.0508 116.872 12.2417 116.39 12.6235C115.919 13.0052 115.666 13.5316 115.631 14.2027H120.324Z" fill="#808080"></path> <path d="M127.633 13.092C127.633 12.0508 127.821 11.1137 128.197 10.2807C128.574 9.44774 129.074 8.77672 129.697 8.26768C130.321 7.74706 131.015 7.35371 131.779 7.08762C132.544 6.82152 133.344 6.68848 134.179 6.68848C135.437 6.68848 136.608 6.95457 137.69 7.48675V9.41303C136.808 8.81143 135.749 8.51063 134.514 8.51063C133.208 8.51063 132.079 8.8982 131.126 9.67334C130.173 10.4485 129.691 11.588 129.679 13.092C129.679 14.0407 129.926 14.8564 130.42 15.5389C130.915 16.2215 131.52 16.7132 132.238 17.014C132.955 17.3148 133.726 17.4652 134.549 17.4652C135.867 17.4652 136.943 17.1528 137.778 16.5281V18.4891C136.672 19.0213 135.478 19.2874 134.196 19.2874C133.373 19.2874 132.579 19.1601 131.814 18.9056C131.05 18.6395 130.35 18.2577 129.715 17.7602C129.08 17.2628 128.574 16.6091 128.197 15.7992C127.821 14.9894 127.633 14.087 127.633 13.092Z" fill="#808080"></path> <path d="M141.207 19.0618H139.584V10.7319H141.472V16.181L146.006 10.7319H147.63V19.0618H145.742V13.6127L141.207 19.0618Z" fill="#808080"></path> <path d="M149.462 14.9662C149.462 13.5201 149.926 12.4152 150.856 11.6516C151.785 10.8881 152.879 10.5063 154.137 10.5063C155.149 10.5063 156.02 10.7203 156.749 11.1484V12.8491C156.09 12.3863 155.308 12.1549 154.402 12.1549C153.567 12.1549 152.855 12.3863 152.267 12.8491C151.679 13.3003 151.385 13.9828 151.385 14.8968C151.385 15.7876 151.673 16.4702 152.25 16.9446C152.838 17.4073 153.543 17.6387 154.367 17.6387C155.261 17.6387 156.084 17.4247 156.837 16.9966V18.7147C156.025 19.0964 155.09 19.2873 154.032 19.2873C152.797 19.2873 151.726 18.9171 150.82 18.1767C149.915 17.4247 149.462 16.3545 149.462 14.9662Z" fill="#808080"></path> <path d="M162.662 19.0618H160.774V12.3632H157.845V10.7319H165.573V12.3632H162.662V19.0618Z" fill="#808080"></path> <path d="M166.296 14.8968C166.296 14.1795 166.425 13.5316 166.684 12.9532C166.943 12.3631 167.284 11.9004 167.708 11.5649C168.131 11.2178 168.59 10.9575 169.084 10.7839C169.578 10.5988 170.078 10.5063 170.584 10.5063C171.231 10.5063 171.813 10.6046 172.33 10.8013C172.86 10.998 173.283 11.2641 173.601 11.5996C173.918 11.9351 174.177 12.3227 174.377 12.7623C174.577 13.2019 174.683 13.6647 174.695 14.1506C174.706 14.6249 174.665 15.1051 174.571 15.591H168.202C168.296 16.2967 168.649 16.8289 169.26 17.1875C169.872 17.5346 170.601 17.7081 171.448 17.7081C172.413 17.7081 173.307 17.5115 174.13 17.1181V18.7147C173.318 19.0964 172.307 19.2873 171.095 19.2873C169.719 19.2873 168.572 18.9056 167.655 18.142C166.749 17.3784 166.296 16.2967 166.296 14.8968ZM172.877 14.2027C172.948 13.7283 172.801 13.254 172.436 12.7796C172.083 12.2937 171.495 12.0508 170.672 12.0508C170.001 12.0508 169.425 12.2417 168.943 12.6235C168.472 13.0052 168.219 13.5316 168.184 14.2027H172.877Z" fill="#808080"></path> <path d="M178.275 19.0618H176.457V10.7319H178.363L181.239 15.1225L184.133 10.7319H186.039V19.0618H184.221V13.4218L181.803 17.0661H180.674L178.275 13.4218V19.0618Z" fill="#808080"></path> <path d="M190.286 19.0618H188.399V10.7319H190.286V14.0812H194.521V10.7319H196.408V19.0618H194.521V15.7125H190.286V19.0618Z" fill="#808080"></path> <path d="M202.97 19.0618H198.77V10.7319H200.659V13.5085H202.97C204.004 13.5085 204.822 13.7689 205.423 14.2895C206.023 14.8101 206.322 15.4753 206.322 16.2852C206.322 17.095 206.023 17.7602 205.423 18.2809C204.822 18.8015 204.004 19.0618 202.97 19.0618ZM200.659 14.9663V17.5867H202.6C203.165 17.5867 203.606 17.4768 203.924 17.257C204.24 17.0256 204.4 16.7017 204.4 16.2852C204.4 15.8571 204.24 15.5332 203.924 15.3133C203.606 15.082 203.165 14.9663 202.6 14.9663H200.659ZM209.728 19.0618H207.84V10.7319H209.728V19.0618Z" fill="#808080"></path> <path d="M211.56 14.8968C211.56 14.1795 211.691 13.5316 211.95 12.9532C212.207 12.3631 212.549 11.9004 212.972 11.5649C213.396 11.2178 213.854 10.9575 214.348 10.7839C214.843 10.5988 215.343 10.5063 215.848 10.5063C216.495 10.5063 217.078 10.6046 217.596 10.8013C218.125 10.998 218.548 11.2641 218.866 11.5996C219.184 11.9351 219.441 12.3227 219.642 12.7623C219.842 13.2019 219.949 13.6647 219.96 14.1506C219.971 14.6249 219.93 15.1051 219.836 15.591H213.466C213.56 16.2967 213.913 16.8289 214.525 17.1875C215.137 17.5346 215.867 17.7081 216.714 17.7081C217.677 17.7081 218.572 17.5115 219.395 17.1181V18.7147C218.583 19.0964 217.572 19.2873 216.361 19.2873C214.984 19.2873 213.837 18.9056 212.92 18.142C212.014 17.3784 211.56 16.2967 211.56 14.8968ZM218.142 14.2027C218.214 13.7283 218.066 13.254 217.701 12.7796C217.348 12.2937 216.76 12.0508 215.936 12.0508C215.266 12.0508 214.69 12.2417 214.207 12.6235C213.736 13.0052 213.485 13.5316 213.45 14.2027H218.142Z" fill="#808080"></path> <path d="M56.9758 27.8833H67.1564V29.7055H63.0806V40.031H61.0692V29.7055H56.9758V27.8833Z" fill="#808080"></path> <path d="M66.0831 35.8661C66.0831 35.1488 66.2125 34.5009 66.4712 33.9224C66.73 33.3324 67.0711 32.8696 67.4946 32.5341C67.9181 32.187 68.3768 31.9267 68.8708 31.7532C69.3649 31.5681 69.8648 31.4755 70.3706 31.4755C71.0175 31.4755 71.5998 31.5739 72.1173 31.7705C72.6467 31.9672 73.0701 32.2333 73.3877 32.5688C73.7053 32.9043 73.9641 33.2919 74.1641 33.7315C74.364 34.1712 74.4699 34.6339 74.4817 35.1198C74.4934 35.5942 74.4522 36.0743 74.3581 36.5602H67.9886C68.0827 37.2659 68.4356 37.7981 69.0473 38.1568C69.6589 38.5038 70.3882 38.6774 71.2351 38.6774C72.1997 38.6774 73.0937 38.4807 73.917 38.0873V39.6839C73.1054 40.0657 72.0938 40.2566 70.8823 40.2566C69.506 40.2566 68.3592 39.8748 67.4417 39.1112C66.5359 38.3476 66.0831 37.2659 66.0831 35.8661ZM72.6643 35.1719C72.7349 34.6976 72.5879 34.2232 72.2232 33.7489C71.8703 33.263 71.2822 33.02 70.4588 33.02C69.7883 33.02 69.212 33.2109 68.7297 33.5927C68.2592 33.9745 68.0063 34.5009 67.971 35.1719H72.6643Z" fill="#808080"></path> <path d="M81.4526 31.7011H83.6051L80.5174 35.7793L83.7816 40.031H81.629L79.4235 37.0808L77.218 40.031H75.0654L78.3295 35.7793L75.2418 31.7011H77.3944L79.4235 34.5124L81.4526 31.7011Z" fill="#808080"></path> <path d="M86.9888 40.031H85.1009V31.7011H86.9888V35.0504H91.2234V31.7011H93.1113V40.031H91.2234V36.6817H86.9888V40.031Z" fill="#808080"></path> <path d="M96.2852 39.0939C95.3912 38.3187 94.9442 37.2428 94.9442 35.8661C94.9442 34.4893 95.3912 33.4134 96.2852 32.6382C97.1909 31.8631 98.2731 31.4755 99.5317 31.4755C100.802 31.4755 101.884 31.8631 102.778 32.6382C103.672 33.4134 104.119 34.4893 104.119 35.8661C104.119 37.2428 103.672 38.3187 102.778 39.0939C101.884 39.869 100.802 40.2566 99.5317 40.2566C98.2731 40.2566 97.1909 39.869 96.2852 39.0939ZM101.455 37.827C101.949 37.3296 102.196 36.6759 102.196 35.8661C102.196 35.0562 101.949 34.4083 101.455 33.9224C100.961 33.4249 100.32 33.1762 99.5317 33.1762C98.7319 33.1762 98.0849 33.4249 97.5909 33.9224C97.0968 34.4083 96.8498 35.0562 96.8498 35.8661C96.8498 36.6759 97.0968 37.3296 97.5909 37.827C98.0849 38.3129 98.7319 38.5559 99.5317 38.5559C100.32 38.5559 100.961 38.3129 101.455 37.827Z" fill="#808080"></path> <path d="M109.148 33.2803C109.077 34.3678 108.983 35.2991 108.865 36.0743C108.748 36.8494 108.571 37.5667 108.336 38.2262C108.101 38.874 107.789 39.3657 107.401 39.7012C107.024 40.0252 106.56 40.1871 106.007 40.1871C105.642 40.1871 105.254 40.1119 104.842 39.9615V38.5038C105.042 38.5732 105.225 38.6079 105.389 38.6079C106.06 38.6079 106.53 38.0353 106.801 36.8899C107.083 35.733 107.271 34.0034 107.365 31.7011H113.894V40.031H112.006V33.2803H109.148Z" fill="#808080"></path> <path d="M117.065 39.0939C116.171 38.3187 115.724 37.2428 115.724 35.8661C115.724 34.4893 116.171 33.4134 117.065 32.6382C117.971 31.8631 119.053 31.4755 120.312 31.4755C121.582 31.4755 122.664 31.8631 123.558 32.6382C124.452 33.4134 124.899 34.4893 124.899 35.8661C124.899 37.2428 124.452 38.3187 123.558 39.0939C122.664 39.869 121.582 40.2566 120.312 40.2566C119.053 40.2566 117.971 39.869 117.065 39.0939ZM122.235 37.827C122.729 37.3296 122.976 36.6759 122.976 35.8661C122.976 35.0562 122.729 34.4083 122.235 33.9224C121.741 33.4249 121.1 33.1762 120.312 33.1762C119.512 33.1762 118.865 33.4249 118.371 33.9224C117.877 34.4083 117.63 35.0562 117.63 35.8661C117.63 36.6759 117.877 37.3296 118.371 37.827C118.865 38.3129 119.512 38.5559 120.312 38.5559C121.1 38.5559 121.741 38.3129 122.235 37.827Z" fill="#808080"></path> <path d="M128.618 40.031H126.73V31.7011H133.046V33.3324H128.618V40.031Z" fill="#808080"></path> <path d="M136.141 40.031H134.518V31.7011H136.406V37.1502L140.941 31.7011H142.564V40.031H140.676V34.5818L136.141 40.031Z" fill="#808080"></path> <path d="M146.549 40.031H144.925V31.7011H146.813V37.1502L151.348 31.7011H152.971V40.031H151.083V34.5818L146.549 40.031Z" fill="#808080"></path> <defs> <linearGradient id="paint0_linear_211_8" x1="0" y1="0" x2="54.3074" y2="9.42524" gradientUnits="userSpaceOnUse"> <stop stop-color="#FDA931"></stop> <stop offset="1" stop-color="#808080"></stop> </linearGradient> <linearGradient id="paint1_linear_211_8" x1="14.7034" y1="14.4615" x2="35.5909" y2="18.0866" gradientUnits="userSpaceOnUse"> <stop stop-color="#FDA931"></stop> <stop offset="1" stop-color="#808080"></stop> </linearGradient> </defs> </svg>

<svg xmlns="http://www.w3.org/2000/svg" width="220" height="47" fill="none"><path fill-rule="evenodd" clip-rule="evenodd" d="M0 3.615C0 1.62 1.646 0 3.676 0h25.73c2.031 0 3.677 1.619 3.677 3.615v5.423H12.866c-2.03 0-3.676 1.62-3.676 3.616v19.884H3.676C1.646 32.538 0 30.92 0 28.923V3.615Zm14.703 34.346v5.424C14.703 45.38 16.35 47 18.38 47H44.11c2.03 0 3.676-1.619 3.676-3.615V18.077c0-1.997-1.645-3.616-3.676-3.616h-5.514v19.885c0 1.997-1.645 3.616-3.675 3.616H14.703Z" fill="url(#a)"/><path d="M14.703 18.077c0-1.997 1.646-3.616 3.676-3.616h14.704v14.462c0 1.997-1.646 3.616-3.676 3.616H14.703V18.076Z" fill="url(#b)"/><path d="M58.228 6.914h8.505V8.72H60.24v3.314h5.964v1.805H60.24v3.419h6.599v1.805h-8.61V6.914ZM69.859 21.3h-1.782v-3.765h1.164c.93-1.62 1.376-3.888 1.34-6.803h6.617v6.803h1.253V21.3H76.67v-2.238h-6.81V21.3Zm2.487-9.04c-.07 2.082-.447 3.84-1.129 5.275h4.076v-5.276h-2.947ZM81.796 19.062h-1.623v-8.33h1.888v5.449l4.534-5.45h1.624v8.33H86.33v-5.448l-4.535 5.449ZM92.468 19.062H90.58v-8.33h1.888v3.35h4.235v-3.35h1.888v8.33h-1.888v-3.35h-4.235v3.35ZM105.152 19.062h-4.199v-8.33h1.888v2.777h2.311c1.035 0 1.853.26 2.453.78.6.521.9 1.186.9 1.996s-.3 1.475-.9 1.996c-.6.52-1.418.78-2.453.78Zm-2.311-4.096v2.62h1.941c.564 0 1.005-.11 1.323-.329.318-.231.476-.555.476-.972 0-.428-.158-.752-.476-.972-.318-.231-.759-.347-1.323-.347h-1.941Zm9.069 4.096h-1.888v-8.33h1.888v8.33ZM113.743 14.897c0-.717.129-1.365.388-1.944.259-.59.6-1.053 1.023-1.388a4.539 4.539 0 0 1 1.377-.781 4.244 4.244 0 0 1 1.499-.278c.647 0 1.23.099 1.747.295.53.197.953.463 1.271.799.317.335.576.723.776 1.162.2.44.306.903.318 1.389.011.474-.03.954-.124 1.44h-6.369c.094.706.446 1.238 1.058 1.597.612.347 1.341.52 2.188.52.965 0 1.859-.196 2.682-.59v1.597c-.812.381-1.823.572-3.035.572-1.376 0-2.523-.381-3.44-1.145-.906-.764-1.359-1.845-1.359-3.245Zm6.581-.694c.071-.475-.076-.949-.441-1.423-.353-.486-.941-.73-1.764-.73-.671 0-1.247.192-1.729.573-.471.382-.724.909-.759 1.58h4.693ZM127.633 13.092c0-1.041.188-1.978.564-2.811.377-.833.877-1.504 1.5-2.013a6.627 6.627 0 0 1 2.082-1.18 7.253 7.253 0 0 1 2.4-.4c1.258 0 2.429.267 3.511.799v1.926c-.882-.602-1.941-.902-3.176-.902-1.306 0-2.435.387-3.388 1.162-.953.775-1.435 1.915-1.447 3.419 0 .949.247 1.764.741 2.447.495.682 1.1 1.174 1.818 1.475.717.3 1.488.451 2.311.451 1.318 0 2.394-.312 3.229-.937v1.961a8.153 8.153 0 0 1-3.582.798 7.496 7.496 0 0 1-2.382-.381 7.244 7.244 0 0 1-2.099-1.146c-.635-.497-1.141-1.15-1.518-1.96-.376-.81-.564-1.713-.564-2.708ZM141.207 19.062h-1.623v-8.33h1.888v5.449l4.534-5.45h1.624v8.33h-1.888v-5.448l-4.535 5.449ZM149.462 14.966c0-1.446.464-2.55 1.394-3.314.929-.764 2.023-1.146 3.281-1.146 1.012 0 1.883.214 2.612.642v1.701c-.659-.463-1.441-.694-2.347-.694-.835 0-1.547.231-2.135.694-.588.451-.882 1.134-.882 2.048 0 .89.288 1.573.865 2.048.588.462 1.293.694 2.117.694a4.91 4.91 0 0 0 2.47-.642v1.718c-.812.381-1.747.572-2.805.572-1.235 0-2.306-.37-3.212-1.11-.905-.752-1.358-1.822-1.358-3.21ZM162.662 19.062h-1.888v-6.699h-2.929v-1.631h7.728v1.631h-2.911v6.699ZM166.296 14.897c0-.717.129-1.365.388-1.944.259-.59.6-1.053 1.024-1.388a4.522 4.522 0 0 1 1.376-.781 4.245 4.245 0 0 1 1.5-.278c.647 0 1.229.099 1.746.295.53.197.953.463 1.271.799.317.335.576.723.776 1.162.2.44.306.903.318 1.389.011.474-.03.954-.124 1.44h-6.369c.094.706.447 1.238 1.058 1.597.612.347 1.341.52 2.188.52.965 0 1.859-.196 2.682-.59v1.597c-.812.381-1.823.572-3.035.572-1.376 0-2.523-.381-3.44-1.145-.906-.764-1.359-1.845-1.359-3.245Zm6.581-.694c.071-.475-.076-.949-.441-1.423-.353-.486-.941-.73-1.764-.73-.671 0-1.247.192-1.729.573-.471.382-.724.909-.759 1.58h4.693ZM178.275 19.062h-1.818v-8.33h1.906l2.876 4.39 2.894-4.39h1.906v8.33h-1.818v-5.64l-2.418 3.644h-1.129l-2.399-3.644v5.64ZM190.286 19.062h-1.887v-8.33h1.887v3.35h4.235v-3.35h1.887v8.33h-1.887v-3.35h-4.235v3.35ZM202.97 19.062h-4.2v-8.33h1.889v2.777h2.311c1.034 0 1.852.26 2.453.78.6.521.899 1.186.899 1.996s-.299 1.475-.899 1.996c-.601.52-1.419.78-2.453.78Zm-2.311-4.096v2.62h1.941c.565 0 1.006-.11 1.324-.329.316-.231.476-.555.476-.972 0-.428-.16-.752-.476-.972-.318-.231-.759-.347-1.324-.347h-1.941Zm9.069 4.096h-1.888v-8.33h1.888v8.33ZM211.56 14.897c0-.717.131-1.365.39-1.944.257-.59.599-1.053 1.022-1.388a4.534 4.534 0 0 1 1.376-.781 4.254 4.254 0 0 1 1.5-.278c.647 0 1.23.099 1.748.295.529.197.952.463 1.27.799.318.335.575.723.776 1.162.2.44.307.903.318 1.389.011.474-.03.954-.124 1.44h-6.37c.094.706.447 1.238 1.059 1.597.612.347 1.342.52 2.189.52a6.14 6.14 0 0 0 2.681-.59v1.597c-.812.381-1.823.572-3.034.572-1.377 0-2.524-.381-3.441-1.145-.906-.764-1.36-1.845-1.36-3.245Zm6.582-.694c.072-.475-.076-.949-.441-1.423-.353-.486-.941-.73-1.765-.73-.67 0-1.246.192-1.729.573-.471.382-.722.909-.757 1.58h4.692ZM56.976 27.883h10.18v1.823h-4.075V40.03h-2.012V29.706h-4.093v-1.823ZM66.083 35.866c0-.717.13-1.365.388-1.944.259-.59.6-1.052 1.024-1.388a4.527 4.527 0 0 1 1.376-.78 4.246 4.246 0 0 1 1.5-.279c.647 0 1.229.099 1.746.295.53.197.953.463 1.27.799.318.335.577.723.777 1.162.2.44.306.903.318 1.389a6.69 6.69 0 0 1-.124 1.44h-6.37c.095.706.448 1.238 1.06 1.597.61.347 1.34.52 2.187.52a6.14 6.14 0 0 0 2.682-.59v1.597c-.812.382-1.823.573-3.035.573-1.376 0-2.523-.382-3.44-1.146-.906-.763-1.359-1.845-1.359-3.245Zm6.581-.694c.07-.474-.076-.949-.44-1.423-.354-.486-.942-.729-1.765-.729-.67 0-1.247.19-1.73.573-.47.381-.723.908-.758 1.579h4.693ZM81.453 31.701h2.152l-3.088 4.078 3.265 4.252h-2.153l-2.206-2.95-2.205 2.95h-2.153l3.264-4.252-3.087-4.078h2.152l2.03 2.811 2.029-2.81ZM86.989 40.031H85.1v-8.33h1.888v3.35h4.234V31.7h1.888v8.33h-1.888v-3.35H86.99v3.35ZM96.285 39.094c-.894-.775-1.34-1.851-1.34-3.228 0-1.377.446-2.453 1.34-3.228.906-.775 1.988-1.162 3.247-1.162 1.27 0 2.352.387 3.246 1.162.894.775 1.341 1.851 1.341 3.228 0 1.377-.447 2.453-1.341 3.228-.894.775-1.976 1.163-3.246 1.163-1.259 0-2.341-.388-3.247-1.163Zm5.17-1.267c.494-.497.741-1.151.741-1.96 0-.81-.247-1.459-.741-1.945-.494-.497-1.135-.746-1.923-.746-.8 0-1.447.249-1.941.746-.494.486-.741 1.134-.741 1.944s.247 1.464.74 1.961c.495.486 1.142.729 1.942.729.788 0 1.429-.243 1.923-.729ZM109.148 33.28a33.394 33.394 0 0 1-.283 2.794 11.53 11.53 0 0 1-.529 2.152c-.235.648-.547 1.14-.935 1.475-.377.324-.841.486-1.394.486-.365 0-.753-.075-1.165-.225v-1.458c.2.07.383.104.547.104.671 0 1.141-.573 1.412-1.718.282-1.157.47-2.887.564-5.189h6.529v8.33h-1.888v-6.75h-2.858ZM117.065 39.094c-.894-.775-1.341-1.851-1.341-3.228 0-1.377.447-2.453 1.341-3.228.906-.775 1.988-1.162 3.247-1.162 1.27 0 2.352.387 3.246 1.162.894.775 1.341 1.851 1.341 3.228 0 1.377-.447 2.453-1.341 3.228-.894.775-1.976 1.163-3.246 1.163-1.259 0-2.341-.388-3.247-1.163Zm5.17-1.267c.494-.497.741-1.151.741-1.96 0-.81-.247-1.459-.741-1.945-.494-.497-1.135-.746-1.923-.746-.8 0-1.447.249-1.941.746-.494.486-.741 1.134-.741 1.944s.247 1.464.741 1.961c.494.486 1.141.729 1.941.729.788 0 1.429-.243 1.923-.729ZM128.618 40.031h-1.888v-8.33h6.316v1.631h-4.428v6.699ZM136.141 40.031h-1.623v-8.33h1.888v5.45l4.535-5.45h1.623v8.33h-1.888v-5.45l-4.535 5.45ZM146.549 40.031h-1.624v-8.33h1.888v5.45l4.535-5.45h1.623v8.33h-1.888v-5.45l-4.534 5.45Z" fill="gray"/><defs><linearGradient id="a" x1="0" y1="0" x2="54.307" y2="9.425" gradientUnits="userSpaceOnUse"><stop stop-color="#FDA931"/><stop offset="1" stop-color="gray"/></linearGradient><linearGradient id="b" x1="14.703" y1="14.461" x2="35.591" y2="18.087" gradientUnits="userSpaceOnUse"><stop stop-color="#FDA931"/><stop offset="1" stop-color="gray"/></linearGradient></defs></svg>
